src/assets/home.svg

<svg width='24px' height='24px' viewBox='0 0 24 24' fill='none' xmlns='http://www.w3.org/2000/svg'><g id='SVGRepo_bgCarrier' strokeWidth='0' /><g id='SVGRepo_tracerCarrier' strokeLinecap='round' strokeLinejoin='round' /><g id='SVGRepo_iconCarrier'><path d='M9 20H7C5.89543 20 5 19.1046 5 18V10.9199C5 10.336 5.25513 9.78132 5.69842 9.40136L10.6984 5.11564C11.4474 4.47366 12.5526 4.47366 13.3016 5.11564L18.3016 9.40136C18.7449 9.78132 19 10.336 19 10.9199V18C19 19.1046 18.1046 20 17 20H15M9 20V14C9 13.4477 9.44772 13 10 13H14C14.5523 13 15 13.4477 15 14V20M9 20H15' stroke='currentColor' strokeLinecap='round' strokeLinejoin='round' /></g></svg>

<svg xmlns="http://www.w3.org/2000/svg" width="24" height="24" fill="currentColor"><path stroke="currentColor" d="M9 20H7a2 2 0 0 1-2-2v-7.08A2 2 0 0 1 5.698 9.4l5-4.285a2 2 0 0 1 2.604 0l5 4.285A2 2 0 0 1 19 10.92V18a2 2 0 0 1-2 2h-2m-6 0v-6a1 1 0 0 1 1-1h4a1 1 0 0 1 1 1v6m-6 0h6"/></svg>
